svg/fluentui-system-icons/ic_fluent_document_one_page_sparkle_24_filled.svg

<svg width="24" height="24" viewBox="0 0 24 24" fill="none" xmlns="http://www.w3.org/2000/svg">
<path d="M16.0802 6.62997C16.0102 6.52997 15.9302 6.43997 15.8502 6.35997H15.8402C15.5302 6.04997 15.1502 5.80997 14.7302 5.66997L13.3502 5.21997C13.2502 5.17997 13.1502 5.10997 13.0902 5.01997C13.0202 4.92997 12.9902 4.81997 12.9902 4.70997C12.9902 4.59997 13.0202 4.48997 13.0902 4.39997C13.1502 4.30997 13.2402 4.23997 13.3502 4.19997L14.7302 3.74997C15.1502 3.60997 15.5202 3.36997 15.8302 3.05997C16.1202 2.75997 16.3502 2.38997 16.5002 1.98997V1.95997L16.9502 0.579971C16.9902 0.479971 17.0602 0.379971 17.1502 0.319971C17.2402 0.249971 17.3502 0.219971 17.4602 0.219971C17.5702 0.219971 17.6802 0.259971 17.7702 0.319971C17.8602 0.379971 17.9302 0.469971 17.9702 0.579971L18.4202 1.95997C18.5602 2.37997 18.8002 2.75997 19.1102 3.06997C19.4202 3.38997 19.8002 3.61997 20.2202 3.75997L21.6002 4.20997H21.6302C21.7302 4.24997 21.8202 4.31997 21.8902 4.40997C21.9602 4.49997 21.9902 4.60997 21.9902 4.71997C21.9902 4.82997 21.9602 4.93997 21.8902 5.02997C21.8302 5.11997 21.7402 5.18997 21.6302 5.22997L20.2502 5.67997C19.8302 5.81997 19.4502 6.05997 19.1402 6.36997C18.8202 6.67997 18.5902 7.05997 18.4502 7.47997L17.9902 8.85997V8.88997C17.9502 8.97997 17.8802 9.05997 17.8002 9.11997C17.7102 9.18997 17.6002 9.21997 17.4902 9.21997C17.3802 9.21997 17.2702 9.18997 17.1802 9.11997C17.0902 9.05997 17.0202 8.96997 16.9802 8.85997L16.5302 7.47997C16.4302 7.16997 16.2802 6.87997 16.0802 6.62997ZM23.7802 10.43L23.0102 10.19C22.7702 10.11 22.5602 9.97997 22.3902 9.80997C22.2202 9.62997 22.0902 9.41997 22.0102 9.18997L21.7602 8.42997C21.7402 8.36997 21.7002 8.31997 21.6502 8.27997C21.6002 8.23997 21.5402 8.21997 21.4802 8.21997C21.4202 8.21997 21.3602 8.23997 21.3102 8.27997C21.2602 8.31997 21.2202 8.36997 21.2002 8.42997L20.9502 9.18997C20.8802 9.41997 20.7502 9.62997 20.5802 9.79997C20.4102 9.96997 20.2002 10.1 19.9702 10.18L19.2002 10.43C19.1402 10.45 19.0902 10.49 19.0502 10.54C19.0102 10.59 18.9902 10.65 18.9902 10.71C18.9902 10.77 19.0102 10.83 19.0502 10.88C19.0902 10.93 19.1402 10.97 19.2002 10.99L19.9702 11.24C20.2002 11.31 20.4202 11.45 20.5902 11.62C20.7602 11.79 20.8902 12.01 20.9702 12.24L21.2202 13C21.2402 13.06 21.2802 13.11 21.3302 13.15C21.3802 13.19 21.4402 13.21 21.5002 13.21C21.5602 13.21 21.6202 13.19 21.6702 13.15C21.7202 13.11 21.7602 13.06 21.7802 13L22.0302 12.24C22.1102 12 22.2402 11.79 22.4102 11.62C22.5902 11.45 22.8002 11.32 23.0302 11.24L23.8002 10.99C23.8602 10.97 23.9102 10.93 23.9502 10.88C23.9902 10.83 24 10.77 24 10.71C24 10.65 23.9902 10.59 23.9502 10.54C23.9107 10.4906 23.8438 10.4609 23.7802 10.43ZM19.54 12.71L19.8 13.51C19.85 13.65 19.92 13.76 20 13.88V19.96C20 21.2 18.99 22.21 17.75 22.21H6.25C5.01 22.21 4 21.2 4 19.96V4.45996C4 3.21996 5.01 2.20996 6.25 2.20996H14.51C14.44 2.24996 14.36 2.28996 14.29 2.31996L12.87 2.77996C12.47 2.92996 12.12 3.17996 11.88 3.52996C11.63 3.87996 11.5 4.27996 11.5 4.70996C11.5 5.13996 11.63 5.54996 11.87 5.88996C11.9477 6.00225 12.0479 6.09216 12.1446 6.17902C12.1598 6.19272 12.175 6.20634 12.19 6.21996H7.75C7.34 6.21996 7 6.55996 7 6.96996C7 7.37996 7.34 7.71996 7.75 7.71996H14.99C15.0011 7.73935 15.0129 7.75873 15.0249 7.77833C15.0562 7.8295 15.0883 7.88212 15.11 7.93996L15.57 9.34996C15.71 9.74996 15.97 10.09 16.32 10.34C16.67 10.58 17.08 10.71 17.5 10.71C17.5 11.08 17.61 11.44 17.83 11.75C18.05 12.06 18.35 12.28 18.74 12.42L19.54 12.71ZM7.75 17.71H16.25C16.66 17.71 17 17.37 17 16.96C17 16.55 16.66 16.21 16.25 16.21H7.75C7.34 16.21 7 16.55 7 16.96C7 17.37 7.34 17.71 7.75 17.71ZM7.75 12.71H16.25C16.66 12.71 17 12.37 17 11.96C17 11.55 16.66 11.21 16.25 11.21H7.75C7.34 11.21 7 11.55 7 11.96C7 12.37 7.34 12.71 7.75 12.71Z" fill="#212121"/>
</svg>

<svg xmlns="http://www.w3.org/2000/svg" width="24" height="24"><path d="M16.08 6.63c-.07-.1-.15-.19-.23-.27h-.01a2.85 2.85 0 0 0-1.11-.69l-1.38-.45c-.1-.04-.2-.11-.26-.2a.5.5 0 0 1-.1-.31.5.5 0 0 1 .1-.31c.06-.09.15-.16.26-.2l1.38-.45c.42-.14.79-.38 1.1-.69.29-.3.52-.67.67-1.07v-.03l.45-1.38c.04-.1.11-.2.2-.26a.5.5 0 0 1 .31-.1c.11 0 .22.04.31.1.09.06.16.15.2.26l.45 1.38c.14.42.38.8.69 1.11.31.32.69.55 1.11.69l1.38.45h.03c.1.04.19.11.26.2.07.09.1.2.1.31a.5.5 0 0 1-.1.31c-.06.09-.15.16-.26.2l-1.38.45c-.42.14-.8.38-1.11.69-.32.31-.55.69-.69 1.11l-.46 1.38v.03c-.04.09-.11.17-.19.23a.5.5 0 0 1-.31.1.5.5 0 0 1-.31-.1.524.524 0 0 1-.2-.26l-.45-1.38c-.1-.31-.25-.6-.45-.85Zm7.7 3.8-.77-.24c-.24-.08-.45-.21-.62-.38-.17-.18-.3-.39-.38-.62l-.25-.76a.327.327 0 0 0-.11-.15.272.272 0 0 0-.34 0c-.05.04-.09.09-.11.15l-.25.76c-.07.23-.2.44-.37.61-.17.17-.38.3-.61.38l-.77.25c-.06.02-.11.06-.15.11a.272.272 0 0 0 0 .34c.04.05.09.09.15.11l.77.25c.23.07.45.21.62.38.17.17.3.39.38.62l.25.76c.02.06.06.11.11.15a.272.272 0 0 0 .34 0c.05-.04.09-.09.11-.15l.25-.76c.08-.24.21-.45.38-.62.18-.17.39-.3.62-.38l.77-.25c.06-.02.11-.06.15-.11.04-.05.05-.11.05-.17 0-.06-.01-.12-.05-.17-.04-.05-.106-.08-.17-.11Zm-4.24 2.28.26.8c.05.14.12.25.2.37v6.08c0 1.24-1.01 2.25-2.25 2.25H6.25C5.01 22.21 4 21.2 4 19.96V4.46c0-1.24 1.01-2.25 2.25-2.25h8.26c-.07.04-.15.08-.22.11l-1.42.46c-.4.15-.75.4-.99.75a2 2 0 0 0-.38 1.18c0 .43.13.84.37 1.18.078.112.178.202.275.289l.045.041H7.75c-.41 0-.75.34-.75.75s.34.75.75.75h7.24l.035.058a.96.96 0 0 1 .085.162l.46 1.41c.14.4.4.74.75.99.35.24.76.37 1.18.37 0 .37.11.73.33 1.04.22.31.52.53.91.67l.8.29Zm-11.79 5h8.5c.41 0 .75-.34.75-.75s-.34-.75-.75-.75h-8.5c-.41 0-.75.34-.75.75s.34.75.75.75Zm0-5h8.5c.41 0 .75-.34.75-.75s-.34-.75-.75-.75h-8.5c-.41 0-.75.34-.75.75s.34.75.75.75Z"/></svg>
